Catalina-light/actions/16/stickers.svg

<svg width="16" height="16" fill="none" viewBox="0 0 16 16" xmlns="http://www.w3.org/2000/svg">
<style id="current-color-scheme" type="text/css">.ColorScheme-Text { color: #363636; }</style>
<path class="ColorScheme-Text" d="M2 2H14V9.70711L9.70711 14H2V2ZM3 3V13H9V9H13V3H3ZM12.2929 10H10V12.2929L12.2929 10Z" clip-rule="evenodd" fill="currentColor" fill-rule="evenodd"/>
<path class="ColorScheme-Text" d="m7 6.5c0 0.27614-0.22386 0.5-0.5 0.5s-0.5-0.22386-0.5-0.5 0.22386-0.5 0.5-0.5 0.5 0.22386 0.5 0.5z" fill="currentColor"/>
<path class="ColorScheme-Text" d="m10 6.5c0 0.27614-0.22386 0.5-0.5 0.5s-0.5-0.22386-0.5-0.5 0.22386-0.5 0.5-0.5 0.5 0.22386 0.5 0.5z" fill="currentColor"/>
<path class="ColorScheme-Text" d="m11.354 8.8536c-1.8522 1.8521-4.855 1.8521-6.7072 0l0.70711-0.70711c1.4616 1.4616 3.8313 1.4616 5.2929 0l0.7071 0.70711z" clip-rule="evenodd" fill="currentColor" fill-rule="evenodd"/>
</svg>

<svg width="16" height="16" viewBox="0 0 16 16" fill="none" xmlns="http://www.w3.org/2000/svg"><style type="text/css" id="current-color-scheme">.ColorScheme-Text { color: #363636; }</style>
<path fill-rule="evenodd" clip-rule="evenodd" d="M2 2H14V9.70711L9.70711 14H2V2ZM3 3V13H9V9H13V3H3ZM12.2929 10H10V12.2929L12.2929 10Z" fill="currentColor" class="ColorScheme-Text"/>
<path d="M7 6.5C7 6.77614 6.77614 7 6.5 7C6.22386 7 6 6.77614 6 6.5C6 6.22386 6.22386 6 6.5 6C6.77614 6 7 6.22386 7 6.5Z" fill="currentColor" class="ColorScheme-Text"/>
<path d="M10 6.5C10 6.77614 9.77614 7 9.5 7C9.22386 7 9 6.77614 9 6.5C9 6.22386 9.22386 6 9.5 6C9.77614 6 10 6.22386 10 6.5Z" fill="currentColor" class="ColorScheme-Text"/>
<path fill-rule="evenodd" clip-rule="evenodd" d="M11.3536 8.85356C9.50144 10.7057 6.49857 10.7057 4.64645 8.85356L5.35356 8.14645C6.81515 9.60805 9.18486 9.60805 10.6465 8.14645L11.3536 8.85356Z" fill="currentColor" class="ColorScheme-Text"/>
</svg>
